X:1
T:Title
%%score { ( 1 4 ) | ( 2 3 ) }
L:1/8
Q:1/4=112
M:3/4
K:Db
V:1 treble nm="Grand Piano"
V:4 treble 
V:2 bass 
V:3 bass 
V:1
 [FA]2 [GB]2 [FA]2 | [DF]3 [EG] [FA]2 | B2 c2 d2 | [DFA]6 | [CEA]2 [A,CE]2 [CB]2 | %5
w: Chas.~H.~Gabriel * *|||||
 [DA]2 [A,DF]2 [DFA]2 | [DE=G]2 [CEA]2 [DEB]2 | [CEA]6 | [DFA]2 [DGB]2 [DFA]2 | %9
w: ||||
 [A,DF]3 [A,EG] [DFA]2 | [DGB]2 [CGc]2 [G,B,Gd]2 | [DFA]6 | [DGB]2 [DAc]2 [DGB]2 | [GB]3 [FA] F2 | %14
w: |||||
 A2 B2 [Ec]2 | [Fd]6 | e2 e2 e2 | e3 d c2 | [Fd]2 [Ac]2 .[B,GB]2 | [DFA]6 | [DGB]2 [DGB]2 [DGB]2 | %21
w: |||||||
 [D=GB]3 [CAc] d2 | c2 z2 z2 | [CEA]6 | [FA]2 [GB]2 [FA]2 | [DF]3 [EG] [FA]2 | [Fd]2 [Gc]2 [Ad]2 | %27
w: ||||||
 B6 | e2 d2 B2 | [FA]4 [FA]d | z2 z2 c2 | [Fd]6 |] %32
w: |||||
V:2
 [D,D]2 [D,D]2 [D,D]2 | [D,A,]3 [D,A,] [D,D]2 | [G,DG]2 [G,CG]2 [G,B,G]2 | D,6 | %4
 A,,2 A,,2 [A,,G,]2 | [D,F,]2 D,2 D,2 | E,2 E,2 E,2 | A,,6 | D,2 D,2 D,2 | D,3 D, D,2 | %10
 G,2 G,2 G,,2 | D,6 | G,2 G,2 G,2 | [D,D]3 [D,D] [D,A,D]2 | [A,C]2 [A,D]2 [A,,A,]2 | [D,A,]6 | %16
 [A,CG]2 [A,CG]2 [A,CG]2 | [A,CG]3 [A,DG] [A,EG]2 | [D,D]2 DA, z C | D,6 | G,2 G,2 G,2 | %21
 E,3 E, [=G,B,E]2 | [A,E]2 A,2 z E | A,,6 | [D,D]2 [D,D]2 [D,D]2 | [D,A,]3 [D,A,] [D,D]2 | %26
 [D,A,]2 [E,A,]2 [F,D]2 | [G,DG]6 | [G,B,G]2 [G,B,G]2 [G,DG]2 | [D,D]4 [D,D][F,A,D] | %30
 [A,E]2 [A,D]2 [A,,A,]2 | [D,A,]6 |] %32
V:3
 x6 | x6 | x6 | x6 | x6 | x6 | x6 | x6 | x6 | x6 | x6 | x6 | x6 | x6 | x6 | x6 | x6 | x6 | %18
 z2 D,2 D,2 | x6 | x6 | x6 | z2 z2 E,2 | x6 | x6 | x6 | x6 | x6 | x6 | x6 | x6 | x6 |] %32
V:4
 x6 | x6 | x6 | x6 | x6 | x6 | x6 | x6 | x6 | x6 | x6 | x6 | x6 | x6 | x6 | x6 | x6 | x6 | x6 | %19
 x6 | x6 | x6 | z C [EAc]2 .[D=GB]2 | x6 | x6 | x6 | x6 | x6 | x6 | x6 | c2 B2 EG | x6 |] %32

